!!!OTL: Der schwatzhafte Junggeselle
!!!OTL-incipit:Es waren drei Gesellen,
!!!ARE: Europa, Mitteleuropa, Deutschland (), Pommern, Kr. Ueckermuende,
!!    Sandfoerde
!!!YOR: 6, S. 270
!!    1930 aufgezeichnet
!!!SCT: Q0139A
!!!TXL: @@DE
!!!YEM: Copyright 1995, estate of Helmut Schaffrath.
**kern	**text
*ICvox	*
*M4/4	*
*met(c)	*
*k[f#]	*
*G:	*
{4d	Es
=1	=1
4g	wa-
(8f#L	-ren
8eJ)	.
4d	drei
4g	Ge-
=2	=2
(4B	-sel-
8dL	.
8gJ)	.
4g}	-len,
{4d	die
=3	=3
4g	ta-
(8f#L	-ten
8eJ)	.
4d	sich
4g	be-
=4	=4
(4B	-re-
8dL	.
8gJ)	.
4g	-den,
8r}	.
{8d	sie
=5	=5
8dL	schlos-
8bJ	-sen
8bL	al-
8bJ	-le
4b	drei
8r	.
8dd	ein'n
=6	=6
(8ddL	heim-
8ccJ)	.
8eeL	-li-
8ccJ	-chen
4a	Rat,
8r}	.
{8f#	wer
=7	=7
8f#L	da
8aJ	wohl
8aL	ü-
8aJ	-ber
4a	Nacht
8r	.
8b	ein
=8	=8
8bL	Mad-
8aJ	-chen
8bL	bei
8aJ	sich
4g}	hat.
==	==
!!!AGN: Ballade, Indiskretion, verweigerter Beischlaf; Spinnstuben - Lied (?)
!!!ONB: ESAC (Essen Associative Code) Database: BALLADE
!!!AMT: simple quadruple
!!!AIN: vox
!!!EED: Helmut Schaffrath
!!!EEV: 1.0
!!@@COMMENT:"A 112948. Sandförde Kr. Uecermünde Pommern, 1930
!!A. Joseph Ebert. 'Altes Spinnstubenlied'"
!!@@END:
!!!source: Deutsche Volkslieder mit ihren Melodien Balladen. Herausgegeben vom Deutschen Volksliedarchiv. Sechster Band. Freiburg/Breisgau 1976.
!!!page: 270
!!!ENC: Anna Maria Matuszewska
!!!EEV: 2025/03/06
*-	*-
